packages/kaspersky-hexa-ui-icons/src/iconsSVGs/32/Reports1.svg

<svg width="32" height="32" viewBox="0 0 32 32" fill="none" xmlns="http://www.w3.org/2000/svg">
<path d="M12 13.9954C12 13.4431 11.5523 12.9954 11 12.9954C10.4477 12.9954 10 13.4431 10 13.9954V23.9954C10 24.5476 10.4477 24.9954 11 24.9954C11.5523 24.9954 12 24.5476 12 23.9954V13.9954Z" fill="black"/>
<path d="M21 16.9954C21.5523 16.9954 22 17.4431 22 17.9954V23.9954C22 24.5476 21.5523 24.9954 21 24.9954C20.4477 24.9954 20 24.5476 20 23.9954V17.9954C20 17.4431 20.4477 16.9954 21 16.9954Z" fill="black"/>
<path d="M17 20.2942C17 19.7419 16.5523 19.2942 16 19.2942C15.4477 19.2942 15 19.7419 15 20.2942V23.9953C15 24.5476 15.4477 24.9953 16 24.9953C16.5523 24.9953 17 24.5476 17 23.9953V20.2942Z" fill="black"/>
<path fill-rule="evenodd" clip-rule="evenodd" d="M5 5.99536C5 3.78622 6.79086 1.99536 9 1.99536H17.0585C17.5952 1.99536 18.1095 2.21112 18.4855 2.59412L26.4271 10.682C26.7943 11.056 27 11.5592 27 12.0833V25.9954C27 28.2045 25.2091 29.9954 23 29.9954H9C6.79086 29.9954 5 28.2045 5 25.9954V5.99536ZM9 3.99536C7.89543 3.99536 7 4.89079 7 5.99536V25.9954C7 27.0999 7.89543 27.9954 9 27.9954H23C24.1046 27.9954 25 27.0999 25 25.9954V12.9954H20C17.7909 12.9954 16 11.2045 16 8.99536V3.99536H9ZM18 4.95424L23.9318 10.9954H20C18.8954 10.9954 18 10.0999 18 8.99536V4.95424Z" fill="black"/>
</svg>

<svg xmlns="http://www.w3.org/2000/svg" width="32" height="32" fill="none" viewBox="0 0 32 32"><path fill="#000" d="M12 13.995c0-.552-.448-1-1-1s-1 .448-1 1v10c0 .552.448 1 1 1s1-.448 1-1zm9 3c.552 0 1 .448 1 1v6c0 .552-.448 1-1 1s-1-.448-1-1v-6c0-.552.448-1 1-1m-4 3.299c0-.552-.448-1-1-1s-1 .448-1 1v3.701c0 .552.448 1 1 1s1-.448 1-1z"/><path fill="#000" fill-rule="evenodd" d="M5 5.9954c0-2.2092 1.7909-4 4-4h8.0585c.5367 0 1.051.2157 1.427.5987l7.9416 8.0879c.3672.374.5729.8772.5729 1.4013v13.9121c0 2.2091-1.7909 4-4 4H9c-2.2091 0-4-1.7909-4-4zm4-2c-1.1046 0-2 .8954-2 2v20c0 1.1045.8954 2 2 2h14c1.1046 0 2-.8955 2-2v-13h-5c-2.2091 0-4-1.7909-4-4v-5zm9 .9588 5.9318 6.0412H20c-1.1046 0-2-.8955-2-2z" clip-rule="evenodd"/></svg>
